X:1
T:On the Highway of the King
T:Mrs. R. R. Forman
T:On the Highway of the King
T:Public Domain
T:Public Domain
T:Public Domain
C:Mrs. R. R. Forman
Z:Public Domain
%%score ( 1 2 ) ( 3 4 )
L:1/8
M:4/4
K:C
V:1 treble 
V:2 treble 
V:3 bass 
V:4 bass 
V:1
 [CEG]3 [CEG] [CEG]2 [CEA]2 | [B,FA]2 [B,FG]2 [B,FG]4 | [B,FG]3 [B,FG] [B,FG]2 [B,FA]2 | %3
w: 1.~On the high- way|of the King,|Child- ren’s hap- py|
w: 2.~On the high- way|of the King,|Far and hard the|
 [CEA]2 [CEG]2 [CEG]4 | [CGc]3 [CGc] [EGB]2 [EGc]2 | [DGc]2 [DGB]2 (Bc)(^cd) | %6
w: voic- es ring,|Songs of joy and|glad- ness sing- * ing, *|
w: jour- ney- ing;|All the prayers, thy|foot- steps heed- * ing, *|
 [^Fe]2 [Fd]2 [Fc]2 [FA]2 | [Fd]6 z2 | [CEG]3 [CEG] [CEG]2 [CEA]2 | [B,FA]2 [B,FG]2 [B,FG]4 | %10
w: our God a- bove.|Ma-|ny round us, press-|ing on, Gain|
w: ly God has known.|Lit-|tle child- ren, walk|in love, Lift|
 [B,FG]3 [B,FG] [B,FG]2 [B,FA]2 | [CEA]2 [CEG]2 [CEG]4 | [CGc]2 [EGc]>[EGc] [EGB]2 [EGc]2 | %13
w: new cour- age with|the song, Un-|to the wear- ied, hope|
w: your eyes to Heav’n|a- bove; Long|though the way, at last|
 [FAd]2 [FA]2 (dc)([GB][FA]) | [EG]2 [EGc]2 [DFc]2 [FB]2 | [Ec]6 z2 ||"^Refrain" [EGc]2 B>A G2 E2 | %17
w: ’tis bring- ing, * Of *|rest and love. Then|on|the high- way of the|
w: ’tis lead- ing, * To *|heav’n- ly throne. *|||
 C2 [CA]2 [CG]4 | [EA]2 G>F E2 C2 | [A,D]2 [A,^D]2 [B,E]4 |"^Harmony" [DE]3 [DE] [D^F]2 [E^G]2 | %21
w: King, Far let|the sil- very e- choes|ring, List- ening|hearts that pass a-|
w: ||||
 [EA]2 [EB]2 [Ec]4 | [^Fe]2 [Fd]>[Fd] [Fd]2 [FA]2 | (z2 .[FB]2 .[FA]2 .[FG]2) | %24
w: long, Ling- er|to hear the song. All||
w: |||
"^Unison" G3 G G2 A2 | A2 G2 G4 | G3 G G2 A2 | A2 G2 G4 |"^Harmony" [Ec]2 [Ec]>[Ec] [Ed]2 [Ec]2 | %29
w: * jour- ney on|road, Lead- ing|er on to God,|with the child-|Glad prais- es sing- ing,|
w: |||||
 [Fc]2 [Ac]>[Ac] [_EB]2 [EA]2 | [EG]4 [Fd]4 | [Ec]6 z2 |] %32
w: To the King. * *|||
w: |||
V:2
 x8 | x8 | x8 | x8 | x8 | x4 G4 | x8 | x8 | x8 | x8 | x8 | x8 | x8 | x4 [FA]2 x2 | x8 | x8 || x8 | %17
w: |||||To||||||||sweet||||
w: |||||On-||||||||the||||
 x8 | x8 | x8 | x8 | x8 | x8 | [Fd]6 x2 | [CE]8 | [B,F]8 | [B,F]8 | [CE]8 | x8 | x8 | x8 | x8 |] %32
w: ||||||who|the|ev-|Join|ren,|||||
w: |||||||||||||||
V:3
 [C,G,]2 [G,,G,]2 [C,G,]2 [G,,G,]2 | [D,G,]2 [G,,G,]2 ([D,G,]2 [G,,G,]2) | %2
 [D,G,]2 [G,,G,]2 [D,G,]2 [G,,G,]2 | [C,G,]2 [G,,G,]2 ([C,G,]2 [G,,G,]2) | z2 G,2 C,2 [G,C]2 | %5
 D,2 [G,B,]2 D,2 [G,B,]2 | D,2 [A,C]2 D,2 [A,C]2 | (z2 B,A, G,F,E,D,) | %8
 [C,G,]2 [G,,G,]2 [B,,G,]2 [G,,G,]2 | [D,G,]2 [G,,G,]2 ([D,G,]2 [G,,G,]2) | %10
 [D,G,]2 [G,,G,]2 [D,G,]2 [G,,G,]2 | [C,G,]2 [G,,G,]2 ([C,G,]2 [G,,G,]2) | E,2 [G,C]2 C,2 [G,C]2 | %13
 F,,2 F,2- [F,A,D]4 | G,,2 [G,C]2 G,,2 [G,D]2 | [C,G,C]6 z2 || [C,G,C]2 B,>A, G,2 E,2 | %17
 C,2 [C,F,]2 [C,E,]4 | [A,,E,A,]2 G,>F, E,2 C,2 | F,,2 F,2 [E,^G,]4 | %20
 [E,^G,]3 [E,G,] [E,A,]2 [D,B,]2 | [C,A,]2 [C,^G,]2 [A,,A,]4 | %22
 [D,A,]2 [D,A,]>[D,A,] [D,A,]2 [D,C]2 | (z2 .[E,D]2 .[E,C]2 .[E,B,]2) | C,2 G,,2 C,2 G,,2 | %25
 D,2 G,,2 D,4 | D,2 G,,2 D,2 G,,2 | C,2 G,,2 C,2 G,,2 | [C,_B,]2 [C,B,]>[C,B,] [C,G,]2 [C,B,]2 | %29
 [F,A,]2 [F,C]>[F,C] [^F,C]2 [F,C]2 | [G,C]4 [G,B,]4 | [C,G,]6 z2 |] %32
V:4
 x8 | x8 | x8 | x8 | E,4 x4 | x8 | x8 | [G,B,]6 x2 | x8 | x8 | x8 | x8 | x8 | x8 | x8 | x8 || x8 | %17
 x8 | x8 | x8 | x8 | x8 | x8 | [G,B,]6 x2 | G,8 | G,8 | G,8 | G,8 | x8 | x8 | x8 | x8 |] %32

